src/assets/svg/js.svg

<svg width="74" height="73" viewBox="0 0 74 73" fill="none" xmlns="http://www.w3.org/2000/svg">
<g clip-path="url(#clip0)">
<rect x="20.3711" y="4.54541" width="50.75" height="50.75" rx="4.41463" transform="rotate(17.4507 20.3711 4.54541)" fill="#FFCA28"/>
<path d="M37.1072 54.0517L41.4133 52.8135C41.4167 53.779 42.5304 56.4194 44.7649 57.1219C46.9994 57.8243 48.4205 56.93 48.6749 56.1209C49.368 53.916 47.3307 52.4213 46.3522 51.7034C46.1927 51.5864 46.0613 51.49 45.9745 51.4146C45.9299 51.3759 45.8613 51.3215 45.7731 51.2518C44.7007 50.403 40.744 47.2714 42.3095 42.2914C44.0338 36.8062 49.5257 37.8395 50.7228 38.2158C51.5059 38.462 55.2414 39.7417 56.0089 43.8555L51.7921 45.1819C51.5167 43.4077 50.4166 42.5044 49.6412 42.2606C47.7259 41.6586 46.8855 42.9373 46.6846 43.5764C46.1209 45.3698 47.9491 46.8278 49.4928 48.0588C49.8966 48.3809 50.281 48.6874 50.598 48.9804C52.2288 50.4876 54.5829 52.8549 53.1173 57.5174C52.3832 59.8527 49.236 63.0177 44.305 61.4676C37.6813 59.3854 37.1757 54.8567 37.1072 54.0517Z" fill="#3E3E3E"/>
<path d="M19.6692 49.0846L24.1255 47.8951C24.1409 48.8638 24.7637 50.8367 26.405 51.3527C28.0464 51.8686 29.4164 50.4468 29.6706 49.6382L34.6686 33.7391L39.2377 35.1754L34.2398 51.0745C33.6244 53.2907 31.0294 57.2944 25.6617 55.607C20.7266 54.0556 19.5969 50.4776 19.6692 49.0846Z" fill="#3E3E3E"/>
</g>
<defs>
<clipPath id="clip0">
<rect width="58" height="58" fill="white" transform="translate(18) rotate(17.4507)"/>
</clipPath>
</defs>
</svg>

<svg width="74" height="73" fill="none" xmlns="http://www.w3.org/2000/svg"><g clip-path="url(#a)"><rect x="20.371" y="4.545" width="50.75" height="50.75" rx="4.415" transform="rotate(17.45 20.371 4.545)" fill="#FFCA28"/><path d="m37.107 54.052 4.306-1.239c.004.966 1.117 3.606 3.352 4.309 2.234.702 3.655-.192 3.91-1.001.693-2.205-1.344-3.7-2.323-4.418a6.667 6.667 0 0 1-.377-.288 6.612 6.612 0 0 0-.202-.163c-1.072-.849-5.029-3.98-3.464-8.96 1.725-5.486 7.217-4.453 8.414-4.076.783.246 4.518 1.526 5.286 5.64l-4.217 1.326c-.275-1.774-1.375-2.678-2.15-2.921-1.916-.602-2.757.676-2.957 1.315-.564 1.794 1.264 3.252 2.808 4.483.404.322.788.628 1.105.921 1.63 1.508 3.985 3.875 2.52 8.537-.735 2.336-3.882 5.5-8.813 3.95-6.624-2.082-7.13-6.61-7.198-7.415zM19.67 49.085l4.455-1.19c.016.969.639 2.942 2.28 3.458 1.641.516 3.011-.906 3.266-1.715l4.998-15.899 4.569 1.436-4.998 15.9c-.616 2.216-3.21 6.22-8.578 4.532-4.935-1.551-6.065-5.13-5.993-6.522z" fill="#3E3E3E"/></g><defs><clipPath id="a"><path fill="#fff" transform="rotate(17.451 9 58.642)" d="M0 0h58v58H0z"/></clipPath></defs></svg>
